packages/core/src/svgs/networks/mono/xdc.svg

<svg width="24" height="24" viewBox="0 0 24 24" fill="none" xmlns="http://www.w3.org/2000/svg">
<path fill-rule="evenodd" clip-rule="evenodd" d="M9.57196 8.51196L6.82803 11.9062L9.71705 15.4901L8.10953 15.4926C7.77845 15.4926 7.49039 15.3407 7.24325 15.037L5.72219 13.1467L4.20641 15.0418C3.96179 15.3481 3.67141 15.5 3.34012 15.5H2.28026C2.11472 15.5 2.02046 15.4279 2 15.2809C2 15.2087 2.03585 15.129 2.10438 15.0418L4.60897 11.9087L2.24209 8.98257C2.17334 8.89805 2.13749 8.81828 2.13749 8.74345C2.13749 8.5942 2.22669 8.51938 2.41016 8.51938H3.48036C3.81164 8.51938 4.10202 8.6713 4.35191 8.98009L5.71481 10.6737L7.07792 8.97762C7.32254 8.67391 7.61291 8.51951 7.94905 8.51443H8.30333L9.57196 8.51196ZM21.8625 14.9801C21.8626 15.1122 21.809 15.2388 21.7135 15.3323C21.618 15.4257 21.4885 15.4782 21.3535 15.4784L19.0928 15.4804C17.6536 15.4804 16.6064 15.2015 15.9491 14.641C15.6484 14.3846 15.4217 14.0583 15.2587 13.6697C15.4369 13.1942 15.5286 12.6361 15.5261 11.9961C15.5235 11.356 15.4343 10.7982 15.2534 10.3225C15.4166 9.93162 15.6433 9.6051 15.9415 9.34867C16.5963 8.78591 17.6433 8.50454 19.0827 8.50206L21.4901 8.5C21.557 8.49995 21.6233 8.51279 21.6852 8.53779C21.7471 8.5628 21.8033 8.59947 21.8506 8.64572C21.898 8.69197 21.9355 8.74689 21.9612 8.80735C21.9868 8.8678 22 8.93259 22 8.99803V9.87679L19.1414 9.87926C18.2498 9.87926 17.6433 10.0386 17.3198 10.36C16.9962 10.6811 16.8356 11.2265 16.8382 11.9961C16.8382 12.7658 17.0014 13.3086 17.3223 13.6275C17.6433 13.9463 18.2523 14.1032 19.1441 14.1032L21.8623 14.1005V14.9803L21.8625 14.9801ZM14.9274 10.3227C14.9936 10.4822 15.0497 10.644 15.0904 10.8083C15.1826 11.1987 15.2279 11.5982 15.2254 11.9988C15.2285 12.3985 15.1841 12.7972 15.0929 13.1869C15.0524 13.3526 14.9988 13.5149 14.9327 13.6724C14.7694 14.061 14.5425 14.3873 14.2446 14.6437C13.5873 15.2042 12.5401 15.4856 11.1006 15.488H10.0968L8.98868 14.1131L11.0447 14.1108C11.9363 14.1108 12.5401 13.9513 12.8638 13.6326C13.1874 13.3139 13.3452 12.7685 13.3452 11.9988C13.3452 11.229 13.1849 10.6838 12.8612 10.3651C12.5401 10.0438 11.9313 9.88689 11.0395 9.88689L8.84085 9.88936L9.95428 8.51196L11.093 8.50948C12.5325 8.50701 13.5822 8.78839 14.237 9.35114C14.5375 9.60531 14.7642 9.9343 14.9274 10.3227ZM8.64959 13.68L7.223 11.9118L8.64452 10.1433L8.64959 13.68Z" fill="white"/>
</svg>

<svg xmlns="http://www.w3.org/2000/svg" width="24" height="24" fill="none" viewBox="0 0 24 24">
    <path fill="#fff" fill-rule="evenodd" d="m9.572 8.512-2.744 3.394 2.889 3.584-1.607.003q-.497 0-.867-.456l-1.52-1.89-1.517 1.895q-.368.458-.866.458H2.28q-.249.001-.28-.22.001-.107.104-.238l2.505-3.133-2.367-2.926q-.104-.128-.105-.24 0-.224.273-.224h1.07q.497-.001.872.461l1.363 1.694 1.363-1.696q.367-.456.871-.464h.354zm12.29 6.468a.5.5 0 0 1-.148.352.52.52 0 0 1-.36.146l-2.261.002q-2.16 0-3.144-.839a2.54 2.54 0 0 1-.69-.971c.178-.476.27-1.034.267-1.674q-.002-.96-.273-1.674c.164-.39.39-.717.688-.973q.982-.844 3.142-.847L21.49 8.5a.52.52 0 0 1 .36.146.5.5 0 0 1 .15.352v.879l-2.859.002q-1.337 0-1.821.481-.486.482-.482 1.636.001 1.155.484 1.631.483.478 1.822.476l2.718-.002zm-6.935-4.657q.102.24.163.485c.093.39.138.79.135 1.19.004.4-.04.8-.132 1.189q-.06.25-.16.485a2.6 2.6 0 0 1-.688.972q-.986.84-3.144.844h-1.004l-1.108-1.375 2.056-.002q1.335 0 1.819-.478.483-.48.481-1.634.001-1.155-.484-1.634-.482-.48-1.822-.478l-2.198.002 1.113-1.377 1.139-.003q2.162-.002 3.144.842c.3.254.527.583.69.972M8.65 13.68l-1.427-1.768 1.422-1.769z" clip-rule="evenodd"/>
</svg>
